X: 1
T: Do You Want Anymore
M: 6/8
L: 1/8
R: jig
K: Gmaj
|:DFA A2B|cAd cAG|Adc d2e|fed cAG|
FFF GAB|c3 cAG|Adc AGE|1 FDD D3 :|2 FDD D2g||
| :fdg fec|Adc Ade|fdg fec|ABc d2e|
aaa gag|f/g/af edc|Adc AGE|1 FDD D2g:|2 FDD D3||
